packages/kaspersky-hexa-ui-icons/src/iconsSVGs/24/Support2.svg

<svg width="24" height="24" viewBox="0 0 24 24" fill="none" xmlns="http://www.w3.org/2000/svg">
<path fill-rule="evenodd" clip-rule="evenodd" d="M12 2C6.47715 2 2 6.47715 2 12C2 17.5228 6.47715 22 12 22C17.5228 22 22 17.5228 22 12C22 6.47715 17.5228 2 12 2ZM7.09436 5.68014C8.44904 4.62708 10.1513 4 12 4C13.8487 4 15.551 4.62708 16.9056 5.68014L14.032 8.55382C13.4365 8.20193 12.7418 8 12 8C11.2582 8 10.5635 8.20193 9.96803 8.55382L7.09436 5.68014ZM5.68014 7.09436C4.62708 8.44904 4 10.1513 4 12C4 13.8487 4.62708 15.551 5.68014 16.9056L8.55382 14.032C8.20193 13.4365 8 12.7418 8 12C8 11.2582 8.20193 10.5635 8.55382 9.96803L5.68014 7.09436ZM7.09436 18.3199C8.44904 19.3729 10.1513 20 12 20C13.8487 20 15.551 19.3729 16.9056 18.3199L14.032 15.4462C13.4365 15.7981 12.7418 16 12 16C11.2582 16 10.5635 15.7981 9.96803 15.4462L7.09436 18.3199ZM18.3199 16.9056C19.3729 15.551 20 13.8487 20 12C20 10.1513 19.3729 8.44904 18.3199 7.09436L15.4462 9.96803C15.7981 10.5635 16 11.2582 16 12C16 12.7418 15.7981 13.4365 15.4462 14.032L18.3199 16.9056ZM12 10C10.8954 10 10 10.8954 10 12C10 13.1046 10.8954 14 12 14C13.1046 14 14 13.1046 14 12C14 10.8954 13.1046 10 12 10Z" fill="black"/>
</svg>

<svg xmlns="http://www.w3.org/2000/svg" width="24" height="24" fill="none" viewBox="0 0 24 24"><path fill="#000" fill-rule="evenodd" d="M12 2C6.4772 2 2 6.4772 2 12s4.4772 10 10 10 10-4.4772 10-10S17.5228 2 12 2M7.0944 5.6801C8.449 4.6271 10.1513 4 12 4s3.551.627 4.9056 1.6801L14.032 8.5538A3.98 3.98 0 0 0 12 8c-.7418 0-1.4365.202-2.032.5538zM5.68 7.0944C4.6271 8.449 4 10.1513 4 12s.627 3.551 1.6801 4.9056l2.8737-2.8736A3.98 3.98 0 0 1 8 12c0-.7418.202-1.4365.5538-2.032zm1.4143 11.2255C8.449 19.3729 10.1513 20 12 20s3.551-.6271 4.9056-1.6801l-2.8736-2.8737A3.98 3.98 0 0 1 12 16a3.98 3.98 0 0 1-2.032-.5538zm11.2255-1.4143C19.3729 15.551 20 13.8487 20 12s-.6271-3.551-1.6801-4.9056L15.4462 9.968A3.98 3.98 0 0 1 16 12a3.98 3.98 0 0 1-.5538 2.032zM12 10c-1.1046 0-2 .8954-2 2s.8954 2 2 2 2-.8954 2-2-.8954-2-2-2"/></svg>
